X: 23061
T: Late Night
R: reel
M: 4/4
K: Gmajor
|:"G"GDGA BedB|"D"AGAB "G"G2 AB|"C"c~EEE DEGA|"G"BGde "D"Addc|
"G"BGGG dGBd|"G"gdBG "Am"A2 AB|"C"c~EEE DEGB|"D"AGAF "G"G2 B:|
"G"dgfe dedc|"G"Bcde d2 AB|"C"cecA "G"BdBG|"D"AGFE D2 Bc|
"G"dggg geed|"Am7"gfed c2 AB|"C"c~EEE DEGB|"D"AGAF "G"G2 B:|

